X: 41282
T: Tullamore Harbour, The
R: jig
M: 6/8
K: Gmajor
|:[Dd]|GGB dBG|gaf gdB|G2 d edB|edB AFD|
GGB dBg|gaf g2 A|DFA dcA|GAF G2:|
|:D|GBd g3|dgb gdB|ecA BAG|FAF D2 D|
GBd g2 g|dgb gdB|DFA dcA|GAF G2:|

